X:1
T:Title
%%score { ( 1 4 ) | ( 2 3 ) }
L:1/8
M:9/8
K:G
V:1 treble nm="Grand Piano"
V:4 treble 
V:2 bass 
V:3 bass 
V:1
 z3 z3[Q:1/4=100] GFG | A3 A3 AG[CFA] | [DGB]3 [DGB]3 G-[G_B]=B | [Fc]3 [Fc]3 [Fd]2 [Ac] | %4
[M:3/4] B6 |[M:3/8] Bcd |[M:9/8] [Ge]3 [Ge]3 [Ec]d[Ge] | d3 d3 Bcd | [Fc]3 [Fc]3 [DGB]2 [CDA] | %9
[M:3/4] [B,DG]6 |[M:3/8] z3 |[M:9/8] A3 A3 z3 | B3 B3 DGB | d3 d3 z3 |[M:3/4] [FA]6 |[M:3/8] DGB | %16
[M:9/8] d3 d3 z3 | [Ge]3 [Ge]3 cde | d3 B3 z3 |[M:3/4] [B,DG]6 |] %20
V:2
 z3 z3 .B,3 | z3 z3 .C3 | G,,3 G,,3 z[K:treble] ^C[G,DG] | [D,D]3 [D,D]3 [D,A,]2 [D,D] | %4
[M:3/4][K:treble] [G,DG]6 |[M:3/8] z A,[G,B,G] |[M:9/8][K:bass] [C,C]3 [C,C]3 z D[C,C] | %7
 [G,B,G]3 [G,B,G]3 DC[G,B,D] | [D,A,]3 [D,A,]3 D,2 D, |[M:3/4] G,,6 |[M:3/8][K:treble] DGB | %11
[M:9/8][K:bass] D,2 D, [D,D]2 [D,D] [D,A,D]2 [D,D] | [G,DG]3 [G,DG]3 z3 | %13
 [G,B,G]2 [G,B,] [G,B,G]2[K:bass] [G,B,] [C,C]2 [A,,^C] |[M:3/4] [D,D]6 |[M:3/8] z3 | %16
[M:9/8][K:treble] z3 z3 .D3 | [C,C]3 [C,C]3 z3 | [D,B,]2 D, D,2 D, [D,A,]2 D, |[M:3/4] G,,6 |] %20
V:3
 z3 z3 [G,D]-[G,A,D][G,B,D] | [D,CD]3 [D,CD]3 [D,D]-[D,B,D]D, | z3 z3 .G,3[K:treble] | x9 | %4
[M:3/4][K:treble] x6 |[M:3/8] [G,D]2 z |[M:9/8][K:bass] z3 z3 .C,3 | z3 z3 .G,3 | x9 |[M:3/4] x6 | %10
[M:3/8][K:treble] x3 |[M:9/8][K:bass] x9 | x9 | x5[K:bass] x4 |[M:3/4] x6 |[M:3/8] x3 | %16
[M:9/8][K:treble] [G,B,G]2 [G,B,] [G,B,G]2 [G,B,] [G,G]-[G,CG][G,B,G] | x9 | x9 |[M:3/4] x6 |] %20
V:4
 x9 | x9 | z3 z3 .[DB]3 | x9 |[M:3/4] x6 |[M:3/8] x3 |[M:9/8] z3 z3 .G3 | x9 | x9 |[M:3/4] x6 | %10
[M:3/8] x3 |[M:9/8] [DF]2 [DF] F2 F FA[Fc] | x9 | z2 G z2 G [Ge]2 [Ge] |[M:3/4] x6 |[M:3/8] x3 | %16
[M:9/8] z2 G z2 G Bcd | x9 | G2 [B,G] [DG]2 [DG] [Fc]2 [CDA] |[M:3/4] x6 |] %20

